icon/pk/bitcoin.svg

<svg viewBox="0 0 48 48" fill="none" xmlns="http://www.w3.org/2000/svg" height="1em" width="1em">
  <circle cx="24" cy="24" r="20" fill="#2F88FF" stroke="black" stroke-width="4" stroke-linecap="round" stroke-linejoin="round"/>
  <path d="M20 16H25H27C29.2091 16 31 17.7909 31 20C31 22.2091 29.2091 24 27 24H20V16Z" fill="#2F88FF"/>
  <path d="M20 16V24H27C29.2091 24 31 22.2091 31 20V20C31 17.7909 29.2091 16 27 16H25M20 16H16M20 16V12M20 16H25M25 16V12" stroke="white" stroke-width="4" stroke-linecap="round" stroke-linejoin="round"/>
  <path d="M20 24H29C31.2091 24 33 25.7909 33 28C33 30.2091 31.2091 32 29 32H25H20V24Z" fill="#2F88FF"/>
  <path d="M20 32V24H29C31.2091 24 33 25.7909 33 28V28C33 30.2091 31.2091 32 29 32H25M20 32V36M20 32H16H25M20 32H25M25 32V36" stroke="white" stroke-width="4" stroke-linecap="round" stroke-linejoin="round"/>
</svg>

<svg width="48" height="48" fill="none" xmlns="http://www.w3.org/2000/svg"><circle cx="24" cy="24" r="20" fill="#2F88FF" stroke="#000" stroke-width="4" stroke-linecap="round" stroke-linejoin="round"/><path d="M20 16h7a4 4 0 0 1 0 8h-7v-8Z" fill="#2F88FF"/><path d="M20 16v8h7a4 4 0 0 0 4-4v0a4 4 0 0 0-4-4h-2m-5 0h-4m4 0v-4m0 4h5m0 0v-4" stroke="#fff" stroke-width="4" stroke-linecap="round" stroke-linejoin="round"/><path d="M20 24h9a4 4 0 0 1 0 8h-9v-8Z" fill="#2F88FF"/><path d="M20 32v-8h9a4 4 0 0 1 4 4v0a4 4 0 0 1-4 4h-4m-5 0v4m0-4h-4 9m-5 0h5m0 0v4" stroke="#fff" stroke-width="4" stroke-linecap="round" stroke-linejoin="round"/></svg>
